X: 7
T: Malcolm's New Fiddle
R: reel
M: C|
L: 1/8
K: G
GE |: D2 G2 G2 AB | A2  G2 G2 Bd | g3b a2 ge | d2 BG A2 GE |
D2 G2 G2 AB | A2  G2 G2 Bd | g3b a2 ge | d2 BG A2 Bc :|
|:d3 e d2 Bd | g3 b a2 ge | d2 ed d3 d | d2 BG A2 Bc | 
d3 e d2 Bd | g3 b a2 ge | d2 ed d3 d | d2 BG A2 Bc :|

